X: 231
T: 8. Les 4 Soeurs
T: les 4 Soeurs
B: Robert Landrin "Potpourri fran\,cois des contre-danse ancienne tel quil se danse chez la Reine ..." 1760 p.23 #1 dance 7 #8
S: http://memory.loc.gov/cgi-bin/query/D?musdibib:2:./temp/~ammem_EbRS:
Z: 2014 John Chambers <jc:trillian.mit.edu>
M: 6/8
L: 1/8
K: G
% - - - - - - - - - - - - - - - - - - - - - - - - -
g2g |!segno!\
g2G ABc | B2A d2d |\
dcB AGA | B2A g2g |\
g2G ABc | B2A d2d |\
dcB AGF | HG3 |]\
[| "1.F."d2d | gfe a2d |
!+!c2A a2a |\
agf efd | ^c2A a2a |\
Bgf ed^c | d3 def |\
gBc dcB | eAB cBA |\
dcB ABG | F2D g2g !segno!y|]
% - - - - - - - - - - - - - - - - - - - - - - - - -

%%sep 1 1 500
%%sep 1 1 500
